X:15266
%10504
T:Mazawattee Tea Break
% Nottingham Music Database
S:Derek Pearce, via Phil Rowe
M:6/8
K:Cmaj
"G7"B3 |:"C"cec AcA|"F"FAF D2F|"G"EF^F G3|"G7"GA^A B3|
"C"cec AcA|"F"FAF D2F|"G"BAG "D7"^FGA|  [1"G"G3 "G7"G2B:|
 [2"G"G3 |:"G7"EF^F |"C"G2A GEC|"C7"_B,3 B,CB,|
%Error : Guitar chord name not properly closed
"A"
